X:1
T: A Tribute to Chris Blair
C:
R:Strathspey
Q: 128
K:D
M:4/4
L:1/16
|:A4|D4 FA3 d4 fa3|g4 fe3 d4 A4|B4 dB3 A4 FA3|G4 FG3 E4 F3E|
D4 FA3 d4 fa3|g4 fe3 d4 A4|B4 dg3 f4 dB3|A4 ce3 d4 d4|
f4 f3e d4 A4|G3F GB3 A4 A3G|F4 FE3 D4 FA3|G4 FG3 E4 F3E|
D4 FA3 d4 fa3|g4 fe3 d4 A4|B4 dg3 f4 dB3|1A4 ce3 d4:|2A4 FE3 D4||
